src/assets/filled/LikeShapes.svg

<svg width="24" height="24" viewBox="0 0 24 24"  xmlns="http://www.w3.org/2000/svg">
<path d="M21.5599 10.7396L20.1999 9.15957C19.9399 8.85957 19.7299 8.29957 19.7299 7.89957V6.19957C19.7299 5.13957 18.8599 4.26957 17.7999 4.26957H16.0999C15.7099 4.26957 15.1399 4.05957 14.8399 3.79957L13.2599 2.43957C12.5699 1.84957 11.4399 1.84957 10.7399 2.43957L9.16988 3.80957C8.86988 4.05957 8.29988 4.26957 7.90988 4.26957H6.17988C5.11988 4.26957 4.24988 5.13957 4.24988 6.19957V7.90957C4.24988 8.29957 4.03988 8.85957 3.78988 9.15957L2.43988 10.7496C1.85988 11.4396 1.85988 12.5596 2.43988 13.2496L3.78988 14.8396C4.03988 15.1396 4.24988 15.6996 4.24988 16.0896V17.7996C4.24988 18.8596 5.11988 19.7296 6.17988 19.7296H7.90988C8.29988 19.7296 8.86988 19.9396 9.16988 20.1996L10.7499 21.5596C11.4399 22.1496 12.5699 22.1496 13.2699 21.5596L14.8499 20.1996C15.1499 19.9396 15.7099 19.7296 16.1099 19.7296H17.8099C18.8699 19.7296 19.7399 18.8596 19.7399 17.7996V16.0996C19.7399 15.7096 19.9499 15.1396 20.2099 14.8396L21.5699 13.2596C22.1499 12.5696 22.1499 11.4296 21.5599 10.7396ZM16.6799 11.9996L15.5099 15.5596C15.3599 16.1496 14.7299 16.6296 14.0899 16.6296H12.2399C11.9199 16.6296 11.4699 16.5196 11.2699 16.3196L9.79988 15.1696C9.76988 15.8096 9.47988 16.0796 8.76988 16.0796H8.28988C7.54988 16.0796 7.24988 15.7896 7.24988 15.0896V10.3096C7.24988 9.60957 7.54988 9.31957 8.28988 9.31957H8.77988C9.51988 9.31957 9.81988 9.60957 9.81988 10.3096V10.6696L11.7599 7.78957C11.9599 7.47957 12.4699 7.25957 12.8999 7.42957C13.3699 7.58957 13.6699 8.10957 13.5699 8.56957L13.3299 10.1296C13.3099 10.2696 13.3399 10.3996 13.4299 10.4996C13.5099 10.5896 13.6299 10.6496 13.7599 10.6496H15.7099C16.0899 10.6496 16.4099 10.7996 16.5999 11.0696C16.7699 11.3296 16.7999 11.6596 16.6799 11.9996Z" />
</svg>

<?xml version="1.0" encoding="UTF-8"?>
<svg width="24" height="24" viewBox="0 0 24 24" xmlns="http://www.w3.org/2000/svg">
 <path d="m21.56 10.74-1.36-1.58c-0.26-0.3-0.47-0.86-0.47-1.26v-1.7c0-1.06-0.87-1.93-1.93-1.93h-1.7c-0.39 0-0.96-0.21-1.26-0.47l-1.58-1.36c-0.69-0.59-1.82-0.59-2.52 0l-1.57 1.37c-0.3 0.25-0.87 0.46-1.26 0.46h-1.73c-1.06 0-1.93 0.87-1.93 1.93v1.71c0 0.39-0.21 0.95-0.46 1.25l-1.35 1.59c-0.58 0.69-0.58 1.81 0 2.5l1.35 1.59c0.25 0.3 0.46 0.86 0.46 1.25v1.71c0 1.06 0.87 1.93 1.93 1.93h1.73c0.39 0 0.96 0.21 1.26 0.47l1.58 1.36c0.69 0.59 1.82 0.59 2.52 0l1.58-1.36c0.3-0.26 0.86-0.47 1.26-0.47h1.7c1.06 0 1.93-0.87 1.93-1.93v-1.7c0-0.39 0.21-0.96 0.47-1.26l1.36-1.58c0.58-0.69 0.58-1.83-0.01-2.52zm-4.88 1.26-1.17 3.56c-0.15 0.59-0.78 1.07-1.42 1.07h-1.85c-0.32 0-0.77-0.11-0.97-0.31l-1.47-1.15c-0.03 0.64-0.32 0.91-1.03 0.91h-0.48c-0.74 0-1.04-0.29-1.04-0.99v-4.78c0-0.70003 0.3-0.99003 1.04-0.99003h0.49c0.74 0 1.04 0.29 1.04 0.99003v0.36l1.94-2.88c0.2-0.31 0.71-0.53 1.14-0.36 0.47 0.16 0.77 0.68 0.67 1.14l-0.24 1.56c-0.02 0.14 0.01 0.27 0.1 0.37 0.08 0.09 0.2 0.15 0.33 0.15h1.95c0.38 0 0.7 0.15 0.89 0.42 0.17 0.26 0.2 0.59 0.08 0.93z"/>
</svg>
